X: 1
T: the Popcorn Reel
C:
R: reel
Z: 2021 John Chambers <jc:trillian.mit.edu>
S: Tunes 'N Stuff with Audrey Knuth 2021-5-31
D: https://youtu.be/mswy4ob710g?t=141
D: https://youtube.com/watch?v=ZgrJMXPld1E
S: Portland Collection V.2 p.161
M: C|
L: 1/8
K: E
|::: "E"B2GB zBGB | zBGB "F#m"cFFc |\
     "E"B2GB zBGB | "A"Bcef "B"gfec :::|
|: "E"Bege bege | bege "F#m"aff2 \
[1 "E"Bege bege | "A"Bcef "B"gfec :|\
[2 "A"g2 (3fgf e2ec | "B"Bcef gfec :|
